;FLAVOR:Marlin
;TIME:1932
;Filament used: 1.25616m
;Layer height: 0.2
;MINX:75.922
;MINY:92.786
;MINZ:0.2
;MAXX:144.078
;MAXY:131.222
;MAXZ:10.4
;Generated with Cura_SteamEngine master
M140 S50
M105
M190 S50
M104 S200
M105
M109 S200
M82 ;absolute extrusion mode
M201 X500.00 Y500.00 Z100.00 E5000.00 ;Setup machine max acceleration
M203 X500.00 Y500.00 Z10.00 E50.00 ;Setup machine max feedrate
M204 P500.00 R1000.00 T500.00 ;Setup Print/Retract/Travel acceleration
M205 X8.00 Y8.00 Z0.40 E5.00 ;Setup Jerk
M220 S100 ;Reset Feedrate
M221 S100 ;Reset Flowrate

G28 ;Home

G92 E0 ;Reset Extruder
G1 Z2.0 F3000 ;Move Z Axis up
G1 X10.1 Y20 Z0.28 F5000.0 ;Move to start position
G1 X10.1 Y200.0 Z0.28 F1500.0 E15 ;Draw the first line
G1 X10.4 Y200.0 Z0.28 F5000.0 ;Move to side a little
G1 X10.4 Y20 Z0.28 F1500.0 E30 ;Draw the second line
G92 E0 ;Reset Extruder
G1 Z2.0 F3000 ;Move Z Axis up

G92 E0
G92 E0
G1 F2700 E-5
;LAYER_COUNT:52
;LAYER:0
M107
G0 F6000 X80.438 Y104.624 Z0.2
;TYPE:SKIRT
G1 F2700 E0
G1 F1200 X80.669 Y104.455 E0.00952
G1 X82.814 Y102.865 E0.09833
G1 X84.782 Y101.319 E0.18156
G1 X86.726 Y99.701 E0.26569
G1 X88.62 Y98.031 E0.34967
G1 X90.485 Y96.292 E0.43448
G1 X90.933 Y95.863 E0.45511
G1 X91.638 Y95.244 E0.48632
G1 X92.392 Y94.687 E0.5175
G1 X93.192 Y94.197 E0.5487
G1 X94.03 Y93.776 E0.57989
G1 X94.901 Y93.428 E0.61109
G1 X95.799 Y93.156 E0.6423
G1 X96.716 Y92.961 E0.67348
G1 X97.647 Y92.845 E0.70468
G1 X98.295 Y92.812 E0.72626
G1 X99.282 Y92.79 E0.7591
G1 X99.551 Y92.787 E0.76805
G1 X102.8 Y92.794 E0.87611
G1 X104.836 Y92.789 E0.94383
G1 X104.98 Y92.79 E0.94862
G1 X105.639 Y92.797 E0.97053
G1 X105.988 Y92.806 E0.98215
G1 X107.564 Y92.873 E1.03461
G1 X110.106 Y92.938 E1.11919
G1 X112.613 Y92.93 E1.20257
G1 X115.237 Y92.831 E1.28991
G1 X115.343 Y92.827 E1.29344
G1 X116.668 Y92.79 E1.33752
G1 X116.977 Y92.786 E1.3478
G1 X122.85 Y92.787 E1.54314
G1 X123.006 Y92.788 E1.54833
G1 X123.701 Y92.798 E1.57144
G1 X124.638 Y92.852 E1.60266
G1 X125.566 Y92.985 E1.63384
G1 X126.48 Y93.196 E1.66504
G1 X127.372 Y93.485 E1.69623
G1 X128.237 Y93.849 E1.72744
G1 X129.067 Y94.285 E1.75862
G1 X129.857 Y94.79 E1.78981
G1 X130.601 Y95.36 E1.82098
G1 X131.294 Y95.992 E1.85218
G1 X131.79 Y96.517 E1.8762
G1 X133.492 Y98.445 E1.96174
G1 X135.206 Y100.283 E2.04532
G1 X136.963 Y102.062 E2.12849
G1 X138.794 Y103.816 E2.21282
G1 X140.132 Y105.026 E2.27282
G1 X140.245 Y105.13 E2.27793
G1 X140.561 Y105.424 E2.29228
G1 X141.22 Y106.091 E2.32347
G1 X141.819 Y106.812 E2.35465
G1 X142.355 Y107.582 E2.38585
G1 X142.823 Y108.394 E2.41702
G1 X143.221 Y109.244 E2.44824
G1 X143.545 Y110.124 E2.47943
G1 X143.792 Y111.029 E2.51063
G1 X143.962 Y111.951 E2.54181
G1 X144.063 Y113.139 E2.58147
G1 X144.073 Y113.464 E2.59228
G1 X144.078 Y113.802 E2.60353
G1 X144.078 Y114.829 E2.63769
G1 X144.077 Y114.977 E2.64261
G1 X144.069 Y115.566 E2.6622
G1 X144.072 Y118.45 E2.75812
G1 X144.076 Y118.688 E2.76604
G1 X144.078 Y118.876 E2.77229
G1 X144.078 Y119.465 E2.79188
G1 X144.077 Y119.617 E2.79694
G1 X144.067 Y120.339 E2.82095
G1 X144.014 Y121.276 E2.85217
G1 X143.881 Y122.204 E2.88335
G1 X143.67 Y123.118 E2.91455
G1 X143.382 Y124.01 E2.94573
G1 X143.019 Y124.875 E2.97693
G1 X142.583 Y125.706 E3.00814
G1 X142.079 Y126.496 E3.03931
G1 X141.509 Y127.241 E3.07051
G1 X140.877 Y127.934 E3.1017
G1 X140.189 Y128.571 E3.13289
G1 X139.449 Y129.147 E3.16408
G1 X138.662 Y129.658 E3.19528
G1 X137.835 Y130.1 E3.22647
G1 X136.973 Y130.47 E3.25767
G1 X136.083 Y130.766 E3.28887
G1 X135.171 Y130.984 E3.32006
G1 X134.244 Y131.124 E3.35124
G1 X133.368 Y131.183 E3.38044
G1 X132.561 Y131.205 E3.40729
G1 X132.383 Y131.208 E3.41321
G1 X131.84 Y131.214 E3.43127
G1 X131.677 Y131.215 E3.43669
G1 X130.347 Y131.21 E3.48093
G1 X130.21 Y131.209 E3.48549
G1 X128.237 Y131.177 E3.55112
G1 X115.207 Y131.177 E3.9845
G1 X115.048 Y131.176 E3.98979
G1 X113.873 Y131.159 E4.02887
G1 X113.723 Y131.156 E4.03386
G1 X111.949 Y131.106 E4.09289
G1 X110.652 Y131.097 E4.13603
G1 X109.371 Y131.097 E4.17863
G1 X106.673 Y131.136 E4.26838
G1 X105.39 Y131.172 E4.31107
G1 X105.079 Y131.176 E4.32141
G1 X93.814 Y131.177 E4.69609
G1 X90.947 Y131.219 E4.79146
G1 X90.793 Y131.22 E4.79658
G1 X87.636 Y131.222 E4.90158
G1 X87.487 Y131.221 E4.90654
G1 X86.789 Y131.212 E4.92975
G1 X85.853 Y131.16 E4.96093
G1 X84.924 Y131.028 E4.99214
G1 X84.01 Y130.818 E5.02333
G1 X83.117 Y130.531 E5.05453
G1 X82.252 Y130.168 E5.08573
G1 X81.421 Y129.734 E5.11691
G1 X80.63 Y129.23 E5.14811
G1 X79.885 Y128.66 E5.17931
G1 X79.191 Y128.029 E5.21051
G1 X78.554 Y127.342 E5.24167
G1 X77.977 Y126.602 E5.27288
G1 X77.465 Y125.816 E5.30408
G1 X77.022 Y124.989 E5.33528
G1 X76.651 Y124.128 E5.36646
G1 X76.355 Y123.238 E5.39766
G1 X76.136 Y122.326 E5.42885
G1 X75.995 Y121.399 E5.46004
G1 X75.935 Y120.51 E5.48968
G1 X75.926 Y120.177 E5.50076
G1 X75.922 Y119.88 E5.51064
G1 X75.922 Y118.817 E5.54599
G1 X75.923 Y118.651 E5.55151
G1 X75.931 Y118.128 E5.56891
G1 X75.928 Y115.303 E5.66287
G1 X75.923 Y114.963 E5.67418
G1 X75.922 Y114.798 E5.67967
G1 X75.922 Y114.198 E5.69962
G1 X75.923 Y114.04 E5.70488
G1 X75.933 Y113.344 E5.72803
G1 X75.987 Y112.408 E5.75921
G1 X76.12 Y111.479 E5.79043
G1 X76.331 Y110.566 E5.82159
G1 X76.62 Y109.673 E5.85281
G1 X76.983 Y108.809 E5.88398
G1 X77.419 Y107.978 E5.91519
G1 X77.925 Y107.188 E5.9464
G1 X78.495 Y106.444 E5.97757
G1 X79.127 Y105.751 E6.00876
G1 X79.816 Y105.114 E6.03997
G1 X80.438 Y104.624 E6.06631
G0 F6000 X80.674 Y104.946
G1 F1200 X80.957 Y104.739 E6.07797
G1 X83.054 Y103.185 E6.16478
G1 X85.061 Y101.608 E6.24968
G1 X86.98 Y100.01 E6.33274
G1 X88.874 Y98.341 E6.4167
G1 X90.791 Y96.553 E6.50389
G1 X91.21 Y96.152 E6.52318
G1 X91.902 Y95.545 E6.55379
G1 X92.644 Y95 E6.58441
G1 X93.431 Y94.522 E6.61504
G1 X94.256 Y94.113 E6.64567
G1 X95.113 Y93.778 E6.67627
G1 X95.997 Y93.519 E6.70691
G1 X96.899 Y93.337 E6.73751
G1 X97.814 Y93.234 E6.76814
G1 X98.304 Y93.212 E6.78445
G1 X99.291 Y93.19 E6.81729
G1 X99.55 Y93.187 E6.8259
G1 X102.8 Y93.194 E6.934
G1 X104.837 Y93.189 E7.00175
G1 X104.976 Y93.19 E7.00637
G1 X105.635 Y93.197 E7.02829
G1 X105.971 Y93.206 E7.03947
G1 X107.478 Y93.27 E7.08964
G1 X110.132 Y93.337 E7.17794
G1 X112.6 Y93.33 E7.26003
G1 X115.252 Y93.23 E7.3483
G1 X115.354 Y93.227 E7.35169
G1 X116.679 Y93.19 E7.39578
G1 X116.977 Y93.186 E7.40569
G1 X122.85 Y93.187 E7.60103
G1 X123.001 Y93.188 E7.60605
G1 X123.696 Y93.198 E7.62917
G1 X124.615 Y93.251 E7.65978
G1 X125.526 Y93.384 E7.6904
G1 X126.422 Y93.595 E7.72102
G1 X127.296 Y93.884 E7.75164
G1 X128.142 Y94.247 E7.78226
G1 X128.953 Y94.682 E7.81287
G1 X129.724 Y95.186 E7.8435
G1 X130.448 Y95.754 E7.87411
G1 X131.12 Y96.384 E7.90475
G1 X131.49 Y96.782 E7.92282
G1 X133.2 Y98.719 E8.00876
G1 X134.911 Y100.555 E8.09223
G1 X136.666 Y102.332 E8.1753
G1 X138.531 Y104.117 E8.26116
G1 X139.863 Y105.322 E8.3209
G1 X139.972 Y105.422 E8.32582
G1 X140.288 Y105.716 E8.34018
G1 X140.934 Y106.372 E8.3708
G1 X141.521 Y107.082 E8.40144
G1 X142.044 Y107.839 E8.43204
G1 X142.5 Y108.639 E8.46267
G1 X142.884 Y109.476 E8.4933
G1 X143.194 Y110.343 E8.52392
G1 X143.428 Y111.233 E8.55453
G1 X143.583 Y112.141 E8.58517
G1 X143.663 Y113.151 E8.61887
G1 X143.673 Y113.476 E8.62968
G1 X143.678 Y113.802 E8.64053
G1 X143.678 Y114.829 E8.67468
G1 X143.677 Y114.972 E8.67944
G1 X143.669 Y115.561 E8.69903
G1 X143.672 Y118.458 E8.79539
G1 X143.676 Y118.695 E8.80327
G1 X143.678 Y118.876 E8.80929
G1 X143.678 Y119.465 E8.82888
G1 X143.677 Y119.612 E8.83377
G1 X143.667 Y120.334 E8.85779
G1 X143.614 Y121.253 E8.8884
G1 X143.482 Y122.164 E8.91902
G1 X143.271 Y123.06 E8.94964
G1 X142.983 Y123.935 E8.98027
G1 X142.621 Y124.781 E9.01088
G1 X142.186 Y125.593 E9.04152
G1 X141.683 Y126.363 E9.07211
G1 X141.114 Y127.088 E9.10276
G1 X140.485 Y127.76 E9.13338
G1 X139.8 Y128.375 E9.16399
G1 X139.064 Y128.928 E9.19461
G1 X138.283 Y129.415 E9.22523
G1 X137.463 Y129.833 E9.25584
G1 X136.609 Y130.178 E9.28647
G1 X135.729 Y130.448 E9.31709
G1 X134.828 Y130.64 E9.34773
G1 X133.915 Y130.753 E9.37833
G1 X133.357 Y130.783 E9.39691
G1 X132.55 Y130.805 E9.42376
G1 X132.378 Y130.808 E9.42949
G1 X131.835 Y130.814 E9.44755
G1 X131.678 Y130.815 E9.45277
G1 X130.348 Y130.81 E9.49701
G1 X130.216 Y130.809 E9.5014
G1 X128.243 Y130.777 E9.56703
G1 X115.207 Y130.777 E10.00061
G1 X115.054 Y130.776 E10.00569
G1 X113.879 Y130.759 E10.04478
G1 X113.734 Y130.756 E10.0496
G1 X111.962 Y130.706 E10.10856
G1 X110.655 Y130.697 E10.15204
G1 X109.366 Y130.697 E10.19491
G1 X106.656 Y130.736 E10.28505
G1 X105.379 Y130.772 E10.32754
G1 X105.079 Y130.776 E10.33752
G1 X93.808 Y130.777 E10.7124
G1 X90.941 Y130.819 E10.80776
G1 X90.793 Y130.82 E10.81269
G1 X87.636 Y130.822 E10.91769
G1 X87.492 Y130.821 E10.92248
G1 X86.794 Y130.812 E10.9457
G1 X85.875 Y130.76 E10.97631
G1 X84.964 Y130.629 E11.00692
G1 X84.068 Y130.419 E11.03753
G1 X83.193 Y130.132 E11.06816
G1 X82.346 Y129.77 E11.0988
G1 X81.534 Y129.336 E11.12942
G1 X80.763 Y128.834 E11.16002
G1 X80.038 Y128.266 E11.19065
G1 X79.365 Y127.637 E11.22129
G1 X78.75 Y126.953 E11.25188
G1 X78.196 Y126.218 E11.2825
G1 X77.708 Y125.437 E11.31313
G1 X77.289 Y124.617 E11.34375
G1 X76.943 Y123.764 E11.37437
G1 X76.673 Y122.884 E11.40499
G1 X76.48 Y121.983 E11.43563
G1 X76.366 Y121.07 E11.46623
G1 X76.335 Y120.499 E11.48525
G1 X76.326 Y120.166 E11.49633
G1 X76.322 Y119.88 E11.50585
G1 X76.322 Y118.817 E11.5412
G1 X76.323 Y118.657 E11.54652
G1 X76.331 Y118.134 E11.56392
G1 X76.328 Y115.296 E11.65831
G1 X76.323 Y114.957 E11.66959
G1 X76.322 Y114.798 E11.67488
G1 X76.322 Y114.198 E11.69483
G1 X76.323 Y114.046 E11.69989
G1 X76.333 Y113.35 E11.72304
G1 X76.386 Y112.431 E11.75366
G1 X76.519 Y111.52 E11.78428
G1 X76.73 Y110.623 E11.81493
G1 X77.019 Y109.749 E11.84555
G1 X77.382 Y108.903 E11.87616
G1 X77.817 Y108.092 E11.90677
G1 X78.321 Y107.321 E11.93741
G1 X78.889 Y106.597 E11.96802
G1 X79.519 Y105.925 E11.99865
G1 X80.204 Y105.311 E12.02925
G1 X80.674 Y104.946 E12.04904
G0 F6000 X80.91 Y105.269
G1 F1200 X81.193 Y105.062 E12.0607
G1 X83.293 Y103.506 E12.14763
G1 X85.297 Y101.932 E12.23239
G1 X87.237 Y100.316 E12.31637
G1 X89.165 Y98.617 E12.40184
G1 X91.019 Y96.888 E12.48616
G1 X91.486 Y96.441 E12.50766
G1 X92.166 Y95.846 E12.53771
G1 X92.895 Y95.313 E12.56775
G1 X93.669 Y94.847 E12.5978
G1 X94.481 Y94.452 E12.62783
G1 X95.324 Y94.129 E12.65785
G1 X96.193 Y93.883 E12.68789
G1 X97.08 Y93.714 E12.71793
G1 X98.313 Y93.612 E12.75908
G1 X99.3 Y93.59 E12.79191
G1 X99.549 Y93.587 E12.80019
G1 X102.8 Y93.594 E12.90832
G1 X104.838 Y93.589 E12.97611
G1 X104.971 Y93.59 E12.98053
G1 X105.63 Y93.597 E13.00245
G1 X105.954 Y93.605 E13.01323
G1 X107.509 Y93.671 E13.065
G1 X110.124 Y93.738 E13.152
G1 X112.616 Y93.73 E13.23488
G1 X115.267 Y93.63 E13.32312
G1 X115.365 Y93.627 E13.32638
G1 X116.69 Y93.59 E13.37047
G1 X116.977 Y93.586 E13.38001
G1 X122.85 Y93.587 E13.57535
G1 X122.995 Y93.588 E13.58017
G1 X123.69 Y93.598 E13.60329
G1 X124.591 Y93.651 E13.63331
G1 X125.485 Y93.784 E13.66337
G1 X126.363 Y93.994 E13.6934
G1 X127.219 Y94.282 E13.72344
G1 X128.046 Y94.645 E13.75348
G1 X128.838 Y95.079 E13.78352
G1 X129.588 Y95.581 E13.81353
G1 X130.291 Y96.148 E13.84357
G1 X131.19 Y97.047 E13.88586
G1 X132.892 Y98.975 E13.9714
G1 X134.633 Y100.843 E14.05633
G1 X136.388 Y102.619 E14.13937
G1 X138.251 Y104.403 E14.22516
G1 X139.595 Y105.619 E14.28545
G1 X139.7 Y105.715 E14.29018
G1 X140.016 Y106.009 E14.30453
G1 X140.649 Y106.653 E14.33457
G1 X141.223 Y107.35 E14.3646
G1 X141.733 Y108.096 E14.39466
G1 X142.175 Y108.883 E14.42468
G1 X142.546 Y109.707 E14.45473
G1 X142.842 Y110.56 E14.48476
G1 X143.062 Y111.436 E14.5148
G1 X143.203 Y112.328 E14.54484
G1 X143.263 Y113.163 E14.57268
G1 X143.273 Y113.488 E14.5835
G1 X143.278 Y113.802 E14.59394
G1 X143.278 Y114.829 E14.6281
G1 X143.277 Y114.966 E14.63266
G1 X143.269 Y115.556 E14.65228
G1 X143.272 Y118.403 E14.74698
G1 X143.277 Y118.702 E14.75692
G1 X143.278 Y118.876 E14.76271
G1 X143.278 Y119.465 E14.7823
G1 X143.277 Y119.606 E14.78699
G1 X143.267 Y120.328 E14.81101
G1 X143.215 Y121.23 E14.84106
G1 X143.083 Y122.123 E14.87108
G1 X142.872 Y123.001 E14.90111
G1 X142.585 Y123.858 E14.93117
G1 X142.223 Y124.685 E14.9612
G1 X141.789 Y125.477 E14.99124
G1 X141.287 Y126.228 E15.02128
G1 X140.72 Y126.931 E15.05132
G1 X140.094 Y127.582 E15.08136
G1 X139.412 Y128.174 E15.1114
G1 X138.681 Y128.704 E15.14143
G1 X137.905 Y129.167 E15.17148
G1 X137.092 Y129.56 E15.20152
G1 X136.247 Y129.879 E15.23156
G1 X135.378 Y130.122 E15.26157
G1 X134.49 Y130.287 E15.29161
G1 X133.346 Y130.383 E15.32979
G1 X132.539 Y130.405 E15.35664
G1 X132.374 Y130.408 E15.36213
G1 X131.831 Y130.414 E15.38019
G1 X131.68 Y130.415 E15.38522
G1 X130.35 Y130.41 E15.42945
G1 X130.223 Y130.409 E15.43368
G1 X128.25 Y130.377 E15.49931
G1 X115.207 Y130.377 E15.93312
G1 X115.059 Y130.376 E15.93804
G1 X113.884 Y130.359 E15.97713
G1 X113.746 Y130.356 E15.98172
G1 X111.977 Y130.306 E16.04058
G1 X110.658 Y130.297 E16.08445
G1 X109.36 Y130.297 E16.12762
G1 X106.638 Y130.336 E16.21817
G1 X105.367 Y130.372 E16.26046
G1 X105.079 Y130.376 E16.27004
G1 X93.802 Y130.377 E16.64511
G1 X90.935 Y130.419 E16.74048
G1 X90.792 Y130.42 E16.74523
G1 X87.635 Y130.422 E16.85024
G1 X87.497 Y130.421 E16.85483
G1 X86.799 Y130.412 E16.87804
G1 X85.898 Y130.361 E16.90806
G1 X85.004 Y130.229 E16.93812
G1 X84.126 Y130.02 E16.96813
G1 X83.269 Y129.733 E16.99819
G1 X82.442 Y129.372 E17.02821
G1 X81.649 Y128.939 E17.05826
G1 X80.898 Y128.438 E17.08828
G1 X80.194 Y127.872 E17.11833
G1 X79.543 Y127.246 E17.14837
G1 X78.95 Y126.565 E17.1784
G1 X78.42 Y125.834 E17.20843
G1 X77.956 Y125.059 E17.23848
G1 X77.562 Y124.246 E17.26852
G1 X77.242 Y123.402 E17.29855
G1 X76.998 Y122.532 E17.3286
G1 X76.832 Y121.644 E17.35865
G1 X76.735 Y120.489 E17.3972
G1 X76.726 Y120.156 E17.40828
G1 X76.722 Y119.88 E17.41746
G1 X76.722 Y118.817 E17.45281
G1 X76.723 Y118.663 E17.45793
G1 X76.731 Y118.139 E17.47536
G1 X76.728 Y115.29 E17.57012
G1 X76.723 Y114.951 E17.5814
G1 X76.722 Y114.798 E17.58649
G1 X76.722 Y114.198 E17.60644
G1 X76.723 Y114.051 E17.61133
G1 X76.733 Y113.355 E17.63448
G1 X76.786 Y112.454 E17.6645
G1 X76.918 Y111.561 E17.69453
G1 X77.129 Y110.682 E17.72459
G1 X77.417 Y109.826 E17.75463
G1 X77.78 Y108.999 E17.78467
G1 X78.214 Y108.207 E17.81471
G1 X78.716 Y107.457 E17.84473
G1 X79.283 Y106.754 E17.87477
G1 X79.91 Y106.104 E17.9048
G1 X80.91 Y105.269 E17.94813
G1 F2700 E12.94813
;MESH:smars_gancio.stl
G0 F6000 X97.883 Y105.269
G0 X98.968 Y105.269
G0 X99.73 Y104.97
G0 X104.366 Y104.973
G0 X105.12 Y113.9
G0 X117.73 Y114.654
G0 X117.73 Y104.968
G0 X122.366 Y104.969
G0 X122.366 Y114.654
G0 X129.63 Y114.654
G0 X129.63 Y118.995
G0 X114.426 Y119.097
;TYPE:WALL-INNER
G1 F2700 E17.94813
G1 F1200 X104.5 Y119.097 E18.27828
G1 X104.5 Y119.177 E18.28094
G1 X90.062 Y119.177 E18.76115
G1 X90.048 Y119.177 E18.76161
G1 X90.048 Y119.222 E18.76242
G1 X87.922 Y119.222 E18.83313
G1 X87.922 Y119.108 E18.83692
G1 X90.047 Y119.088 E18.85879
G1 X90.062 Y119.087 E18.85891
G1 X90.062 Y114.634 E19.00702
G1 X87.922 Y114.609 E19.0782
G1 X87.922 Y114.472 E19.08276
G1 X90.062 Y114.472 E19.10943
G1 X99.548 Y114.472 E19.42493
G1 X99.548 Y104.987 E19.7404
G1 X99.548 Y104.787 E19.74706
G1 X99.748 Y104.787 E19.75136
G1 X102.548 Y104.795 E19.84449
G1 X104.349 Y104.79 E19.90439
G1 X104.548 Y104.79 E19.91101
G1 X104.548 Y104.989 E19.91529
G1 X104.548 Y114.472 E20.2307
G1 X117.548 Y114.472 E20.66308
G1 X117.548 Y104.985 E20.97862
G1 X117.548 Y104.786 E20.98524
G1 X117.747 Y104.786 E20.98952
G1 X122.548 Y104.787 E21.1492
G1 X122.548 Y114.472 E21.47133
G1 X129.812 Y114.472 E21.71293
G1 X132.078 Y114.472 E21.7883
G1 X132.078 Y114.586 E21.79209
G1 X129.812 Y114.607 E21.81561
G1 X129.812 Y119.062 E21.96378
G1 X132.049 Y119.086 E22.03819
G1 X132.078 Y119.087 E22.03915
G1 X132.078 Y119.177 E22.04215
G1 X132.078 Y119.211 E22.04328
G1 X132.048 Y119.212 E22.0436
G1 X132.048 Y119.177
G1 X129.812 Y119.177 E22.06279
G1 X115.5 Y119.177 E22.53881
G1 X115.5 Y119.124 E22.54057
G1 X114.426 Y119.097 E22.5763
G0 F6000 X114.421 Y119.497
G1 F1200 X104.9 Y119.497 E22.89297
G1 X104.9 Y119.577 E22.89563
G1 X90.448 Y119.577 E23.37631
