;FLAVOR:Marlin
;TIME:5213
;Filament used: 3.85907m
;Layer height: 0.2
;MINX:62.97
;MINY:81.766
;MINZ:0.24
;MAXX:157.03
;MAXY:138.233
;MAXZ:14.29
;Generated with Cura_SteamEngine master
M140 S60
M105
M190 S60
M104 S200
M105
M109 S200
M82 ;absolute extrusion mode
M201 X500.00 Y500.00 Z100.00 E5000.00 ;Setup machine max acceleration
M203 X500.00 Y500.00 Z10.00 E50.00 ;Setup machine max feedrate
M204 P500.00 R1000.00 T500.00 ;Setup Print/Retract/Travel acceleration
M205 X8.00 Y8.00 Z0.40 E5.00 ;Setup Jerk
M220 S100 ;Reset Feedrate
M221 S100 ;Reset Flowrate

G28 ;Home

G92 E0 ;Reset Extruder
G1 Z2.0 F3000 ;Move Z Axis up
G1 X10.1 Y20 Z0.28 F5000.0 ;Move to start position
G1 X10.1 Y200.0 Z0.28 F1500.0 E15 ;Draw the first line
G1 X10.4 Y200.0 Z0.28 F5000.0 ;Move to side a little
G1 X10.4 Y20 Z0.28 F1500.0 E30 ;Draw the second line
G92 E0 ;Reset Extruder
G1 Z2.0 F3000 ;Move Z Axis up

G92 E0
G92 E0
G1 F1500 E-6.5
;LAYER_COUNT:66
;LAYER:-6
M107
G0 F9000 X70.355 Y85.783 Z0.24
;TYPE:SUPPORT-INTERFACE
G1 F1500 E0
G1 F1125 X71.286 Y85.154 E0.08969
G1 X72.212 Y84.623 E0.1749
G1 X72.919 Y84.273 E0.23787
G1 X73.818 Y83.888 E0.31593
G1 X73.951 Y83.837 E0.3273
G1 X74.971 Y83.49 E0.41331
G1 X75.889 Y83.243 E0.48919
G1 X76.887 Y83.046 E0.5704
G1 X77.068 Y83.017 E0.58503
G1 X77.857 Y82.916 E0.64852
G1 X77.993 Y82.906 E0.65941
G1 X79.485 Y82.834 E0.77864
G1 X88.756 Y82.835 E1.5187
G1 X89.739 Y82.871 E1.59722
G1 X89.904 Y82.883 E1.61042
G1 X90.172 Y82.912 E1.63194
G1 X90.838 Y82.943 E1.68516
G1 X91.566 Y82.892 E1.74341
G1 X92.649 Y82.851 E1.82993
G1 X105.891 Y82.832 E2.88696
G1 X107.006 Y82.875 E2.97603
G1 X107.937 Y82.976 E3.05078
G1 X108.097 Y82.999 E3.06369
G1 X108.938 Y83.155 E3.13196
G1 X109.604 Y83.234 E3.1855
G1 X110.289 Y83.229 E3.24018
G1 X111.077 Y83.114 E3.30375
G1 X111.172 Y83.092 E3.31153
G1 X111.319 Y83.065 E3.32346
G1 X112.213 Y82.933 E3.3956
G1 X112.382 Y82.915 E3.40917
G1 X113.455 Y82.84 E3.49503
G1 X113.952 Y82.832 E3.53471
G1 X116.332 Y82.831 E3.72469
G1 X140.692 Y82.841 E5.66921
G1 X141.664 Y82.876 E5.74685
G1 X141.847 Y82.89 E5.7615
G1 X142.878 Y83.008 E5.84433
G1 X143.672 Y83.15 E5.90872
G1 X144.592 Y83.365 E5.98414
G1 X144.727 Y83.402 E5.99531
G1 X145.736 Y83.721 E6.07978
G1 X146.541 Y84.034 E6.14873
G1 X147.394 Y84.423 E6.22356
G1 X147.578 Y84.517 E6.24006
G1 X148.867 Y85.252 E6.3585
G1 X148.958 Y85.312 E6.3672
G1 X149.738 Y85.851 E6.44289
G1 X149.867 Y85.948 E6.45577
G1 X150.695 Y86.619 E6.54084
G1 X151.214 Y87.098 E6.59722
G1 X151.855 Y87.744 E6.66986
G1 X151.99 Y87.892 E6.68585
G1 X152.572 Y88.574 E6.75742
G1 X152.666 Y88.692 E6.76947
G1 X153.079 Y89.243 E6.82443
G1 X153.673 Y90.131 E6.90971
G1 X154.198 Y91.051 E6.99427
G1 X154.624 Y91.928 E7.0721
G1 X154.669 Y92.035 E7.08136
G1 X155.01 Y92.878 E7.15395
G1 X155.069 Y93.038 E7.16756
G1 X155.31 Y93.771 E7.22916
G1 X155.557 Y94.69 E7.30512
G1 X155.58 Y94.797 E7.31385
G1 X155.78 Y95.844 E7.39894
G1 X155.884 Y96.654 E7.46413
G1 X155.894 Y96.787 E7.47478
G1 X155.966 Y98.277 E7.59385
G1 X155.966 Y104.486 E8.08948
G1 X155.93 Y105.492 E8.16984
G1 X155.92 Y105.627 E8.18064
G1 X155.818 Y106.544 E8.25429
G1 X155.793 Y106.719 E8.2684
G1 X155.63 Y107.598 E8.33977
G1 X155.595 Y107.757 E8.35276
G1 X155.36 Y108.655 E8.42686
G1 X155.232 Y109.313 E8.48037
G1 X155.186 Y109.994 E8.53485
G1 X155.228 Y110.68 E8.58971
G1 X155.415 Y111.563 E8.66176
G1 X155.464 Y111.723 E8.67512
G1 X155.506 Y111.882 E8.68825
G1 X155.705 Y112.769 E8.76081
G1 X155.73 Y112.908 E8.77208
G1 X155.863 Y113.807 E8.84463
G1 X155.881 Y113.969 E8.85764
G1 X155.957 Y115.055 E8.94454
G1 X155.965 Y115.553 E8.9843
G1 X155.966 Y121.784 E9.48168
G1 X155.928 Y122.85 E9.56683
G1 X155.915 Y123.003 E9.57909
G1 X155.794 Y124.07 E9.66481
G1 X155.679 Y124.737 E9.71883
G1 X155.399 Y125.923 E9.81611
G1 X155.076 Y126.944 E9.90159
G1 X154.776 Y127.717 E9.96778
G1 X154.379 Y128.591 E10.0444
G1 X154.286 Y128.772 E10.06065
G1 X153.552 Y130.061 E10.17905
G1 X153.488 Y130.158 E10.18833
G1 X152.948 Y130.939 E10.26412
G1 X152.857 Y131.061 E10.27627
G1 X152.182 Y131.894 E10.36186
G1 X151.799 Y132.315 E10.40729
G1 X151.702 Y132.414 E10.41835
G1 X151.067 Y133.043 E10.4897
G1 X150.897 Y133.197 E10.50801
G1 X149.645 Y134.217 E10.63692
G1 X148.714 Y134.846 E10.72661
G1 X147.788 Y135.377 E10.81181
G1 X147.081 Y135.727 E10.87479
G1 X146.181 Y136.112 E10.95293
G1 X146.049 Y136.163 E10.96422
G1 X145.029 Y136.51 E11.05023
G1 X144.111 Y136.757 E11.12611
G1 X143.113 Y136.954 E11.20731
G1 X142.932 Y136.983 E11.22194
G1 X142.037 Y137.093 E11.29393
G1 X140.523 Y137.166 E11.41492
G1 X136.105 Y137.167 E11.76758
G1 X135.119 Y137.131 E11.84634
G1 X134.955 Y137.119 E11.85947
G1 X134.066 Y137.022 E11.93085
G1 X133.892 Y136.997 E11.94489
G1 X133.015 Y136.835 E12.01608
G1 X132.845 Y136.798 E12.02996
G1 X131.942 Y136.562 E12.10447
G1 X131.284 Y136.434 E12.15798
G1 X130.603 Y136.389 E12.21245
G1 X129.917 Y136.431 E12.26732
G1 X129.056 Y136.612 E12.33755
G1 X128.718 Y136.708 E12.3656
G1 X127.822 Y136.909 E12.4389
G1 X127.692 Y136.932 E12.44943
G1 X126.805 Y137.063 E12.52101
G1 X126.607 Y137.084 E12.5369
G1 X125.198 Y137.167 E12.64957
G1 X125.005 Y137.168 E12.66497
G1 X123.129 Y137.164 E12.81472
G1 X122.213 Y137.13 E12.88789
G1 X122.052 Y137.118 E12.90078
G1 X121.148 Y137.018 E12.97338
G1 X120.973 Y136.993 E12.98749
G1 X120.101 Y136.832 E13.05828
G1 X119.951 Y136.798 E13.07055
G1 X119.05 Y136.562 E13.1449
G1 X118.392 Y136.434 E13.19841
G1 X117.71 Y136.388 E13.25298
G1 X117.025 Y136.429 E13.30775
G1 X116.164 Y136.61 E13.37798
G1 X115.977 Y136.666 E13.39357
G1 X115.818 Y136.708 E13.40669
G1 X114.922 Y136.909 E13.47999
G1 X114.792 Y136.932 E13.49053
G1 X113.91 Y137.062 E13.5617
G1 X113.7 Y137.084 E13.57855
G1 X112.191 Y137.167 E13.69919
G1 X111.997 Y137.168 E13.71468
G1 X107.793 Y137.166 E14.05026
G1 X106.67 Y137.121 E14.13997
G1 X105.752 Y137.019 E14.2137
G1 X105.577 Y136.994 E14.22781
G1 X104.699 Y136.832 E14.29908
G1 X104.565 Y136.801 E14.31006
G1 X103.65 Y136.562 E14.38555
G1 X102.992 Y136.434 E14.43906
G1 X102.31 Y136.388 E14.49362
G1 X101.624 Y136.429 E14.54848
G1 X100.757 Y136.612 E14.61921
G1 X100.579 Y136.665 E14.63404
G1 X100.417 Y136.708 E14.64742
G1 X99.522 Y136.909 E14.72064
G1 X99.392 Y136.932 E14.73118
G1 X98.505 Y137.063 E14.80275
G1 X98.307 Y137.084 E14.81864
G1 X96.898 Y137.167 E14.93131
G1 X96.705 Y137.168 E14.94672
G1 X94.829 Y137.164 E15.09647
G1 X93.913 Y137.13 E15.16964
G1 X93.752 Y137.118 E15.18252
G1 X92.848 Y137.018 E15.25513
G1 X92.673 Y136.993 E15.26924
G1 X91.801 Y136.832 E15.34002
G1 X91.651 Y136.798 E15.3523
G1 X90.75 Y136.562 E15.42665
G1 X90.092 Y136.434 E15.48015
G1 X89.41 Y136.388 E15.53472
G1 X88.725 Y136.429 E15.5895
G1 X87.864 Y136.61 E15.65973
G1 X87.677 Y136.666 E15.67531
G1 X87.518 Y136.708 E15.68844
G1 X86.622 Y136.909 E15.76174
G1 X86.491 Y136.933 E15.77237
G1 X85.618 Y137.061 E15.8428
G1 X85.387 Y137.085 E15.86134
G1 X83.855 Y137.167 E15.9838
G1 X83.116 Y137.169 E16.04279
G1 X79.235 Y137.158 E16.35259
G1 X78.299 Y137.121 E16.42737
G1 X78.145 Y137.109 E16.4397
G1 X77.075 Y136.985 E16.52568
G1 X76.328 Y136.85 E16.58628
G1 X75.416 Y136.636 E16.66105
G1 X75.272 Y136.597 E16.67296
G1 X74.264 Y136.279 E16.75733
G1 X73.452 Y135.963 E16.82689
G1 X72.606 Y135.577 E16.90112
G1 X72.422 Y135.483 E16.91761
G1 X71.135 Y134.749 E17.03588
G1 X71.037 Y134.684 E17.04526
G1 X70.262 Y134.149 E17.12044
G1 X70.132 Y134.051 E17.13343
G1 X69.305 Y133.381 E17.21839
G1 X68.787 Y132.903 E17.27466
G1 X68.157 Y132.267 E17.34612
G1 X67.998 Y132.091 E17.36505
G1 X66.981 Y130.841 E17.49368
G1 X66.354 Y129.914 E17.58302
G1 X65.823 Y128.988 E17.66822
G1 X65.472 Y128.281 E17.73123
G1 X65.088 Y127.382 E17.80927
G1 X65.035 Y127.245 E17.82099
G1 X64.688 Y126.22 E17.90737
G1 X64.42 Y125.203 E17.99133
G1 X64.244 Y124.3 E18.06476
G1 X64.215 Y124.122 E18.07916
G1 X64.116 Y123.346 E18.14161
G1 X64.106 Y123.207 E18.15273
G1 X64.034 Y121.714 E18.27205
G1 X64.034 Y115.514 E18.76696
G1 X64.07 Y114.508 E18.84731
G1 X64.08 Y114.373 E18.85812
G1 X64.182 Y113.456 E18.93177
G1 X64.207 Y113.281 E18.94588
G1 X64.37 Y112.402 E19.01724
G1 X64.405 Y112.243 E19.03024
G1 X64.64 Y111.345 E19.10433
G1 X64.768 Y110.687 E19.15784
G1 X64.814 Y110.006 E19.21233
G1 X64.772 Y109.32 E19.26719
G1 X64.585 Y108.437 E19.33924
G1 X64.532 Y108.263 E19.35376
G1 X64.494 Y108.118 E19.36572
G1 X64.292 Y107.216 E19.43951
G1 X64.27 Y107.092 E19.44956
G1 X64.135 Y106.178 E19.52331
G1 X64.118 Y106.018 E19.53615
G1 X64.043 Y104.945 E19.62201
G1 X64.035 Y104.447 E19.66177
G1 X64.034 Y98.216 E20.15916
G1 X64.073 Y97.132 E20.24574
G1 X64.085 Y96.997 E20.25656
G1 X64.206 Y95.93 E20.34228
G1 X64.348 Y95.135 E20.40674
G1 X64.602 Y94.073 E20.49391
G1 X64.924 Y93.056 E20.57906
G1 X65.234 Y92.259 E20.64733
G1 X65.623 Y91.406 E20.72216
G1 X65.714 Y91.228 E20.73812
G1 X66.457 Y89.925 E20.85785
G1 X66.512 Y89.842 E20.8658
G1 X67.051 Y89.063 E20.94142
G1 X67.167 Y88.909 E20.95681
G1 X67.819 Y88.105 E21.03944
G1 X68.293 Y87.59 E21.09531
G1 X68.933 Y86.957 E21.16716
G1 X69.103 Y86.803 E21.18547
G1 X70.355 Y85.783 E21.31438
G0 F9000 X70.4 Y85.752
G1 F1125 X70.4 Y134.244 E25.18522
G0 F9000 X72 Y135.242
G1 F1125 X72 Y84.744 E29.21619
G0 F9000 X73.6 Y83.981
G1 F1125 X73.6 Y136.02 E33.37017
G0 F9000 X75.2 Y136.574
G1 F1125 X75.2 Y83.428 E37.61251
G0 F9000 X76.8 Y83.063
G1 F1125 X76.8 Y136.935 E41.91281
G0 F9000 X78.4 Y137.124
G1 F1125 X78.4 Y82.886 E46.24232
G0 F9000 X80 Y82.835
G1 F1125 X80 Y137.16 E50.57878
G0 F9000 X81.6 Y137.164
G1 F1125 X81.6 Y82.835 E54.91555
G0 F9000 X83.2 Y82.835
G1 F1125 X83.2 Y137.169 E59.25273
G0 F9000 X84.8 Y137.117
G1 F1125 X84.8 Y82.835 E63.58575
G0 F9000 X86.4 Y82.835
G1 F1125 X86.4 Y136.947 E67.90521
G0 F9000 X88 Y136.582
G1 F1125 X88 Y82.835 E72.19552
G0 F9000 X89.6 Y82.866
G1 F1125 X89.6 Y136.4 E76.46884
G0 F9000 X91.2 Y136.679
G1 F1125 X91.2 Y82.917 E80.76035
G0 F9000 X92.8 Y82.85
G1 F1125 X92.8 Y137.011 E85.08372
G0 F9000 X94.4 Y137.148
G1 F1125 X94.4 Y82.848 E89.41818
G0 F9000 X96 Y82.846
G1 F1125 X96 Y137.166 E93.75424
G0 F9000 X97.6 Y137.126
G1 F1125 X97.6 Y82.843 E98.08734
G0 F9000 X99.2 Y82.841
G1 F1125 X99.2 Y136.961 E102.40743
G0 F9000 X100.8 Y136.603
G1 F1125 X100.8 Y82.839 E106.69911
G0 F9000 X102.4 Y82.837
G1 F1125 X102.4 Y136.394 E110.97426
G0 F9000 X104 Y136.653
G1 F1125 X104 Y82.834 E115.27033
G0 F9000 X105.6 Y82.832
G1 F1125 X105.6 Y136.997 E119.59401
G0 F9000 X107.2 Y137.142
G1 F1125 X107.2 Y82.897 E123.92408
G0 F9000 X108.8 Y83.13
G1 F1125 X108.8 Y137.166 E128.23747
G0 F9000 X110.4 Y137.167
G1 F1125 X110.4 Y83.212 E132.54439
G0 F9000 X112 Y82.964
G1 F1125 X112 Y137.168 E136.87119
G0 F9000 X113.6 Y137.09
G1 F1125 X113.6 Y82.837 E141.2019
G0 F9000 X115.2 Y82.831
G1 F1125 X115.2 Y136.847 E145.51369
G0 F9000 X116.8 Y136.477
G1 F1125 X116.8 Y82.832 E149.79586
G0 F9000 X118.4 Y82.832
G1 F1125 X118.4 Y136.435 E154.07469
G0 F9000 X120 Y136.809
G1 F1125 X120 Y82.833 E158.38328
G0 F9000 X121.6 Y82.834
G1 F1125 X121.6 Y137.068 E162.71248
G0 F9000 X123.2 Y137.164
G1 F1125 X123.2 Y82.834 E167.04933
G0 F9000 X124.8 Y82.835
G1 F1125 X124.8 Y137.167 E171.38635
G0 F9000 X126.4 Y137.097
G1 F1125 X126.4 Y82.836 E175.71769
G0 F9000 X128 Y82.836
G1 F1125 X128 Y136.87 E180.03092
G0 F9000 X129.6 Y136.498
G1 F1125 X129.6 Y82.837 E184.31437
G0 F9000 X131.2 Y82.838
G1 F1125 X131.2 Y136.428 E188.59216
G0 F9000 X132.8 Y136.786
G1 F1125 X132.8 Y82.838 E192.89852
G0 F9000 X134.4 Y82.839
G1 F1125 X134.4 Y137.058 E197.22652
G0 F9000 X136 Y137.163
G1 F1125 X136 Y82.84 E201.56281
G0 F9000 X137.6 Y82.84
G1 F1125 X137.6 Y137.167 E205.89943
G0 F9000 X139.2 Y137.167
G1 F1125 X139.2 Y82.841 E210.23597
G0 F9000 X140.8 Y82.845
G1 F1125 X140.8 Y137.153 E214.57107
G0 F9000 X142.4 Y137.049
G1 F1125 X142.4 Y82.954 E218.88916
G0 F9000 X144 Y83.227
G1 F1125 X144 Y136.779 E223.16391
G0 F9000 X145.6 Y136.316
G1 F1125 X145.6 Y83.679 E227.36563
G0 F9000 X147.2 Y84.335
G1 F1125 X147.2 Y135.669 E231.46333
G0 F9000 X148.8 Y134.788
G1 F1125 X148.8 Y85.214 E235.42054
G0 F9000 X150.4 Y86.38
G1 F1125 X150.4 Y133.602 E239.19
G0 F9000 X152 Y132.095
G1 F1125 X152 Y87.904 E242.71752
G0 F9000 X153.6 Y90.022
G1 F1125 X153.6 Y129.977 E245.9069
G0 F9000 X155.2 Y126.553
G1 F1125 X155.2 Y110.223 E247.21043
G0 F9000 X155.2 Y109.787
G1 F1125 X155.2 Y93.437 E248.51556
G1 F1500 E242.01556
G0 F9000 X156.211 Y93.1
G0 X155.549 Y91.394
G0 X154.59 Y89.59
G0 X153.396 Y87.901
G0 X151.856 Y86.236
G0 X150.366 Y84.992
G0 X149.31 Y84.276
G0 X147.849 Y83.46
G0 X145.95 Y82.669
G0 X143.783 Y82.085
G0 X141.723 Y81.813
G0 X79.308 Y81.773
G0 X77.676 Y81.865
G0 X75.56 Y82.229
G0 X73.41 Y82.904
G0 X71.58 Y83.755
G0 X69.936 Y84.79
G0 X68.407 Y85.998
G0 X68.8 Y87.088
G1 F1500 E248.51556
G1 F1125 X68.8 Y132.914 E252.17359
G0 F9000 X67.2 Y131.11
G1 F1125 X67.2 Y88.868 E255.54553
G0 F9000 X65.6 Y91.456
G1 F1125 X65.6 Y128.538 E258.50558
G0 F300 X65.6 Y128.538 Z0.54
G0 F9000 X66.522 Y130.162
;TIME_ELAPSED:185.721670
;LAYER:-5
M140 S60
;TYPE:SUPPORT
G1 F1125 X71.056 Y134.696 E259.14537
G1 X71.036 Y134.683 E259.14775
G1 X70.262 Y134.148 E259.24164
G1 X70.132 Y134.05 E259.25788
G1 X69.304 Y133.38 E259.36416
G1 X68.787 Y132.902 E259.43442
G1 X68.157 Y132.266 E259.52374
G1 X67.998 Y132.09 E259.54741
G1 X66.981 Y130.84 E259.7082
G1 F1500 E253.2082
G0 F9000 X66.282 Y131.68
G0 X67.377 Y132.991
G0 X68.735 Y134.293
G0 X70.443 Y135.568
G0 X71.056 Y134.696
G1 F1500 E259.7082
G1 F1125 X71.134 Y134.747 E259.7175
G1 X72.422 Y135.482 E259.86547
G1 X72.605 Y135.576 E259.88599
G1 X73.452 Y135.961 E259.97883
G1 X73.918 Y136.143 E260.02875
G1 X65.043 Y127.269 E261.28104
G1 X65.034 Y127.244 E261.28369
G1 X64.688 Y126.219 E261.39163
G1 X64.429 Y125.24 E261.49268
G1 X75.948 Y136.76 E263.1182
G1 X76.327 Y136.849 E263.15705
G1 X77.075 Y136.984 E263.23289
G1 X77.653 Y137.05 E263.29094
G1 X64.14 Y123.537 E265.19777
G1 X64.116 Y123.344 E265.21717
G1 X64.106 Y123.206 E265.23098
G1 X64.049 Y122.031 E265.34836
G1 X79.171 Y137.153 E267.48224
G1 X79.234 Y137.156 E267.48853
G1 X80.591 Y137.16 E267.62393
G1 X64.034 Y120.602 E269.96038
G1 X64.034 Y119.188 E270.10146
G1 X82.01 Y137.165 E272.63814
G1 X83.116 Y137.168 E272.7485
G1 X83.427 Y137.167 E272.77953
G1 X64.034 Y117.774 E275.51609
G1 X64.034 Y116.36 E275.65718
G1 X84.79 Y137.116 E278.58608
G1 X85.386 Y137.084 E278.64563
G1 X85.617 Y137.059 E278.66882
G1 X86.08 Y136.992 E278.7155
G1 X64.053 Y114.964 E281.82382
G1 X64.069 Y114.507 E281.86944
G1 X64.08 Y114.372 E281.88296
G1 X64.16 Y113.657 E281.95475
G1 X87.266 Y136.763 E285.21525
G1 X87.517 Y136.707 E285.24091
G1 X87.676 Y136.665 E285.25732
G1 X87.864 Y136.609 E285.2769
G1 X88.41 Y136.493 E285.33259
G1 X64.361 Y112.444 E288.72617
G1 X64.37 Y112.4 E288.73065
G1 X64.404 Y112.241 E288.74687
G1 X64.64 Y111.344 E288.83942
G1 X64.645 Y111.314 E288.84245
G1 X89.74 Y136.409 E292.38363
G1 X90.092 Y136.433 E292.41883
G1 X90.75 Y136.56 E292.4857
G1 X91.503 Y136.757 E292.56336
G1 X64.809 Y110.064 E296.33011
G1 X64.814 Y110.005 E296.33601
G1 X64.771 Y109.319 E296.4046
G1 X64.585 Y108.436 E296.49464
G1 X64.58 Y108.42 E296.49631
G1 X93.217 Y137.057 E300.5373
G1 X93.751 Y137.117 E300.59092
G1 X93.912 Y137.129 E300.60703
G1 X94.733 Y137.159 E300.689
G1 X64.201 Y106.628 E304.99733
G1 X64.135 Y106.177 E305.04281
G1 X64.118 Y106.017 E305.05886
G1 X64.05 Y105.062 E305.15439
G1 X96.153 Y137.165 E309.68447
G1 X96.705 Y137.167 E309.73955
G1 X96.897 Y137.165 E309.75871
G1 X97.53 Y137.128 E309.82198
G1 X64.034 Y103.632 E314.54863
G1 X64.034 Y102.217 E314.68982
G1 X98.83 Y137.013 E319.59991
G1 X99.392 Y136.931 E319.65658
G1 X99.521 Y136.907 E319.66967
G1 X100.025 Y136.794 E319.72121
G1 X64.034 Y100.803 E324.79993
G1 X64.034 Y99.389 E324.94102
G1 X101.168 Y136.523 E330.18103
G1 X101.623 Y136.427 E330.22743
G1 X102.309 Y136.386 E330.296
G1 X102.455 Y136.396 E330.3106
G1 X64.041 Y97.983 E335.73116
G1 X64.073 Y97.131 E335.81623
G1 X64.085 Y96.996 E335.82975
G1 X64.123 Y96.65 E335.86449
G1 X104.17 Y136.697 E341.51555
G1 X104.564 Y136.8 E341.55619
G1 X104.699 Y136.831 E341.57001
G1 X105.576 Y136.993 E341.65899
G1 X105.752 Y137.018 E341.67673
G1 X105.925 Y137.038 E341.69411
G1 X64.297 Y95.41 E347.56827
